X: 31466
T: Paddy Taylor's
R: reel
M: 4/4
K: Dmajor
FEDF ABAF|GE =cE dE=cE|FEDF ABAF|GE=cE EDD2:|
d3c dfed|Beed efge|Addc dfed|cAGE EDD2|
d3c dfed|(3Bcd ef g2fg|af ge d2 cA|BdAG FDD2||
F3G A2dG|(3GGG dG (3GGG dG|F3G A2d=c|ABGE EDD2:|

